Newaita-dark/apps/48/system-help.svg

<svg height="48pt" viewBox="0 0 48 48" width="48pt" xmlns="http://www.w3.org/2000/svg" xmlns:xlink="http://www.w3.org/1999/xlink"><linearGradient id="a"><stop offset="0" stop-opacity=".313726"/><stop offset=".222222" stop-opacity=".27451"/><stop offset="1" stop-opacity="0"/></linearGradient><radialGradient id="b" cx="450.908936" cy="189.579361" gradientTransform="matrix(.00000026 -.117199 -.210958 -.00000015 66.784728 95.392994)" gradientUnits="userSpaceOnUse" r="21.166656" xlink:href="#a"/><radialGradient id="c" cx="450.908936" cy="189.579361" gradientTransform="matrix(-.00000026 .117199 .210958 .00000015 -19.155178 -11.291223)" gradientUnits="userSpaceOnUse" r="21.166656" xlink:href="#a"/><radialGradient id="d" cx="450.908936" cy="189.579361" gradientTransform="matrix(-.00000026 -.117199 .210958 -.00000015 -19.155178 95.392994)" gradientUnits="userSpaceOnUse" r="21.166656" xlink:href="#a"/><radialGradient id="e" cx="450.908936" cy="189.579361" gradientTransform="matrix(.00000026 .117199 -.210958 .00000015 66.784725 -11.291224)" gradientUnits="userSpaceOnUse" r="21.166656" xlink:href="#a"/><linearGradient id="f" gradientTransform="matrix(.0200401 0 0 .093759 18.698079 20.158175)" gradientUnits="userSpaceOnUse" x1="255.323059" x2="255.323044" y1="233.5" y2="254.666656"><stop offset="0" stop-opacity=".27451"/><stop offset="1" stop-opacity="0"/></linearGradient><linearGradient id="g" gradientUnits="userSpaceOnUse" x1="23.814816" x2="23.814816" y1="42.05096580616" y2="4.34417266504"><stop offset="0" stop-color="#e0e0e0"/><stop offset="1" stop-color="#eee"/></linearGradient><linearGradient id="h" gradientTransform="matrix(.0175412 -.0175412 -.0175412 -.0175412 23.378315 56.440223)" gradientUnits="userSpaceOnUse" x1="422.598206" x2="1497.400513" y1="397.716309" y2="1472.518677"><stop offset="0" stop-color="#ef5350"/><stop offset="1" stop-color="#e57373"/></linearGradient><path d="m27.289062 42.050781h3.96875v-1.984375h-3.96875zm0 0" fill="url(#b)"/><path d="m20.339844 42.050781h-3.96875v1.984375h3.96875zm0 0" fill="url(#c)"/><path d="m20.339844 42.050781h-3.96875v-1.984375h3.96875zm0 0" fill="url(#d)"/><path d="m27.289062 42.050781h3.96875v1.984375h-3.96875zm0 0" fill="url(#e)"/><path d="m20.339844 41.554688h6.949218v2.480468h-6.949218zm0 0" fill="url(#f)"/><path d="m23.816406 4.34375c-10.445312 0-18.855468 8.410156-18.855468 18.855469 0 10.441406 8.410156 18.851562 18.855468 18.851562 10.441406 0 18.851563-8.410156 18.851563-18.851562 0-10.445313-8.410157-18.855469-18.851563-18.855469zm0 10.914062c4.394532 0 7.9375 3.542969 7.9375 7.941407 0 4.394531-3.542968 7.9375-7.9375 7.9375-4.398437 0-7.941406-3.542969-7.941406-7.9375 0-4.398438 3.542969-7.941407 7.941406-7.941407zm0 0" fill="url(#g)"/><path d="m23.816406 4.34375c-10.445312 0-18.855468 8.410156-18.855468 18.855469 0 .121093.003906.246093.003906.371093.199218-10.273437 8.53125-18.480468 18.851562-18.480468 10.320313 0 18.652344 8.207031 18.847656 18.480468.003907-.125.003907-.25.003907-.371093 0-10.445313-8.410157-18.855469-18.851563-18.855469zm-7.929687 19.226562c-.007813.121094-.011719.246094-.011719.371094 0 4.398438 3.542969 7.9375 7.941406 7.9375 4.394532 0 7.9375-3.539062 7.9375-7.9375 0-.125-.003906-.25-.007812-.371094-.195313 4.222657-3.660156 7.566407-7.929688 7.566407-4.273437 0-7.738281-3.34375-7.929687-7.566407zm0 0" fill="#f8f8f8"/><path d="m10.484375 9.867188c-1.335937 1.335937-2.429687 2.816406-3.28125 4.394531l9.246094 5.777343.140625-.140624c.382812-.835938.921875-1.621094 1.613281-2.3125.691406-.691407 1.476563-1.230469 2.3125-1.613282l.140625-.140625-5.777344-9.246093c-1.578125.851562-3.058594 1.945312-4.394531 3.28125zm-3.28125 22.265624c.851563 1.578126 1.945313 3.058594 3.28125 4.394532 1.335937 1.335937 2.816406 2.429687 4.394531 3.285156l5.777344-9.246094-.140625-.144531c-.835937-.382813-1.621094-.917969-2.3125-1.609375s-1.230469-1.480469-1.613281-2.316406l-.140625-.140625zm25.546875-25.546874-5.777344 9.246093.140625.140625c.835938.382813 1.625.921875 2.316407 1.613282.691406.691406 1.226562 1.476562 1.609374 2.3125l.144532.140624 9.246094-5.777343c-.855469-1.578125-1.949219-3.058594-3.285157-4.394531-1.332031-1.335938-2.816406-2.429688-4.394531-3.28125zm-5.777344 23.980468 5.777344 9.246094c1.578125-.855469 3.0625-1.949219 4.394531-3.285156 1.335938-1.335938 2.429688-2.816406 3.285157-4.394532l-9.246094-5.777343-.144532.140625c-.382812.835937-.917968 1.625-1.609374 2.316406-.691407.691406-1.480469 1.226562-2.316407 1.609375zm0 0" fill="url(#h)"/><path d="m23.816406 4.203125c-10.523437 0-18.996094 8.472656-18.996094 18.996094 0 10.519531 8.472657 18.992187 18.996094 18.992187 10.519532 0 18.992188-8.472656 18.992188-18.992187 0-10.523438-8.472656-18.996094-18.992188-18.996094zm0 .28125c10.367188 0 18.710938 8.34375 18.710938 18.714844 0 10.367187-8.34375 18.710937-18.710938 18.710937-10.371094 0-18.714844-8.34375-18.714844-18.710937 0-10.371094 8.34375-18.714844 18.714844-18.714844zm0 0" fill="#212121"/><path d="m4.964844 22.808594c0 .128906-.003906.257812-.003906.390625 0 10.441406 8.410156 18.851562 18.855468 18.851562 10.441406 0 18.851563-8.410156 18.851563-18.851562 0-.132813 0-.261719-.003907-.390625-.207031 10.261718-8.535156 18.460937-18.847656 18.460937-10.316406 0-18.644531-8.199219-18.851562-18.460937zm0 0" fill-opacity=".235294"/><path d="m23.816406 4.203125c-10.523437 0-18.996094 8.472656-18.996094 18.996094 0 10.519531 8.472657 18.992187 18.996094 18.992187 10.519532 0 18.992188-8.472656 18.992188-18.992187 0-10.523438-8.472656-18.996094-18.992188-18.996094zm0 .28125c10.367188 0 18.710938 8.34375 18.710938 18.714844 0 10.367187-8.34375 18.710937-18.710938 18.710937-10.371094 0-18.714844-8.34375-18.714844-18.710937 0-10.371094 8.34375-18.714844 18.714844-18.714844zm0 10.632813c-4.476562 0-8.082031 3.605468-8.082031 8.082031 0 4.472656 3.605469 8.078125 8.082031 8.078125 4.472656 0 8.078125-3.605469 8.078125-8.078125 0-4.476563-3.605469-8.082031-8.078125-8.082031zm0 .28125c4.320313 0 7.796875 3.476562 7.796875 7.800781 0 4.320312-3.476562 7.796875-7.796875 7.796875-4.324218 0-7.800781-3.476563-7.800781-7.796875 0-4.324219 3.476563-7.800781 7.800781-7.800781zm0 0" fill="#333"/><path d="m14.878906 6.585938c-1.578125.851562-3.058594 1.945312-4.394531 3.28125-1.335937 1.335937-2.429687 2.816406-3.28125 4.394531l.292969.183593c.804687-1.378906 1.800781-2.679687 2.988281-3.867187 1.335937-1.335937 2.816406-2.429687 4.394531-3.28125l5.472656 8.753906c.054688-.027343.109376-.054687.164063-.078125l.140625-.140625zm17.871094 0-5.777344 9.246093.140625.140625c.054688.023438.109375.050782.167969.078125l5.46875-8.753906c1.578125.851563 3.0625 1.945313 4.394531 3.28125 1.1875 1.1875 2.183594 2.488281 2.988281 3.867187l.296876-.183593c-.855469-1.578125-1.949219-3.058594-3.285157-4.394531-1.332031-1.335938-2.816406-2.429688-4.394531-3.28125zm-16.300781 19.769531-9.246094 5.777343c.09375.175782.191406.351563.292969.527344l8.953125-5.59375.140625.140625c.382812.839844.921875 1.625 1.613281 2.316407.644531.644531 1.371094 1.15625 2.148437 1.535156l.304688-.492188-.140625-.144531c-.835937-.382813-1.621094-.917969-2.3125-1.609375-.691406-.695312-1.230469-1.480469-1.613281-2.316406zm14.734375 0-.144532.140625c-.382812.835937-.917968 1.621094-1.609374 2.316406-.691407.691406-1.480469 1.226562-2.316407 1.609375l-.140625.144531.308594.492188c.773438-.378906 1.5-.890625 2.148438-1.535156.691406-.691407 1.226562-1.476563 1.609374-2.316407l.144532-.140625 8.949218 5.59375c.101563-.175781.199219-.351562.296876-.527344zm0 0" fill="#fff" fill-opacity=".392157"/><path d="m111.822655-109.76005c-14.24864 14.248639-25.914192 30.038798-34.996658 46.870524l98.615582 61.619116 1.499857-1.499857c4.082944-8.915815 9.832395-17.290015 17.20669-24.664311 7.374296-7.374296 15.748497-13.123747 24.664312-17.20669l1.499857-1.499857-61.619116-98.615583c-16.831726 9.082466-32.621885 20.748019-46.870524 34.996658zm-34.996658 237.477322c9.082466 16.831726 20.748018 32.621885 34.996658 46.870524 14.248639 14.24864 30.038798 25.914192 46.870524 35.038321l61.619116-98.615583-1.499857-1.541519c-8.915815-4.082944-17.290016-9.790732-24.664312-17.165028-7.374295-7.374296-13.123746-15.790159-17.20669-24.705974l-1.499857-1.499857zm272.47398-272.47398-61.619116 98.615583 1.499857 1.499857c8.915815 4.082943 17.331678 9.832394 24.705974 17.20669s13.082084 15.748496 17.165027 24.664311l1.54152 1.499857 98.615583-61.619116c-9.124129-16.831726-20.789682-32.621885-35.038321-46.870524-14.206977-14.248639-30.038798-25.914192-46.870524-34.996658zm-61.619116 255.767242 61.619116 98.615583c16.831726-9.124129 32.663547-20.789681 46.870524-35.038321 14.248639-14.248639 25.914192-30.038798 35.038321-46.870524l-98.615583-61.619116-1.54152 1.499857c-4.082943 8.915815-9.790731 17.331678-17.165027 24.705974s-15.790159 13.082084-24.705974 17.165028zm0 0" fill="none" stroke="#212121" stroke-linecap="square" stroke-linejoin="bevel" stroke-width="3" transform="matrix(.093759 0 0 .093759 0 20.158175)"/></svg>

<?xml version="1.0" encoding="UTF-8"?>
<svg xmlns="http://www.w3.org/2000/svg" xmlns:xlink="http://www.w3.org/1999/xlink" width="48pt" height="48pt" viewBox="0 0 48 48" version="1.1">
<defs>
<radialGradient id="radial0" gradientUnits="userSpaceOnUse" cx="450.908936" cy="189.579361" fx="450.908936" fy="189.579361" r="21.166656" gradientTransform="matrix(0.000000261256,-0.117199,-0.210958,-0.000000152308,66.784728,95.392994)">
<stop offset="0" style="stop-color:rgb(0%,0%,0%);stop-opacity:0.313726;"/>
<stop offset="0.222222" style="stop-color:rgb(0%,0%,0%);stop-opacity:0.27451;"/>
<stop offset="1" style="stop-color:rgb(0%,0%,0%);stop-opacity:0;"/>
</radialGradient>
<radialGradient id="radial1" gradientUnits="userSpaceOnUse" cx="450.908936" cy="189.579361" fx="450.908936" fy="189.579361" r="21.166656" gradientTransform="matrix(-0.000000261256,0.117199,0.210958,0.000000152308,-19.155178,-11.291223)">
<stop offset="0" style="stop-color:rgb(0%,0%,0%);stop-opacity:0.313726;"/>
<stop offset="0.222222" style="stop-color:rgb(0%,0%,0%);stop-opacity:0.27451;"/>
<stop offset="1" style="stop-color:rgb(0%,0%,0%);stop-opacity:0;"/>
</radialGradient>
<radialGradient id="radial2" gradientUnits="userSpaceOnUse" cx="450.908936" cy="189.579361" fx="450.908936" fy="189.579361" r="21.166656" gradientTransform="matrix(-0.000000261256,-0.117199,0.210958,-0.000000152308,-19.155178,95.392994)">
<stop offset="0" style="stop-color:rgb(0%,0%,0%);stop-opacity:0.313726;"/>
<stop offset="0.222222" style="stop-color:rgb(0%,0%,0%);stop-opacity:0.27451;"/>
<stop offset="1" style="stop-color:rgb(0%,0%,0%);stop-opacity:0;"/>
</radialGradient>
<radialGradient id="radial3" gradientUnits="userSpaceOnUse" cx="450.908936" cy="189.579361" fx="450.908936" fy="189.579361" r="21.166656" gradientTransform="matrix(0.000000261256,0.117199,-0.210958,0.000000152308,66.784725,-11.291224)">
<stop offset="0" style="stop-color:rgb(0%,0%,0%);stop-opacity:0.313726;"/>
<stop offset="0.222222" style="stop-color:rgb(0%,0%,0%);stop-opacity:0.27451;"/>
<stop offset="1" style="stop-color:rgb(0%,0%,0%);stop-opacity:0;"/>
</radialGradient>
<linearGradient id="linear0" gradientUnits="userSpaceOnUse" x1="255.323059" y1="233.5" x2="255.323044" y2="254.666656" gradientTransform="matrix(0.0200401,0,0,0.093759,18.698079,20.158175)">
<stop offset="0" style="stop-color:rgb(0%,0%,0%);stop-opacity:0.27451;"/>
<stop offset="1" style="stop-color:rgb(0%,0%,0%);stop-opacity:0;"/>
</linearGradient>
<linearGradient id="linear1" gradientUnits="userSpaceOnUse" x1="960" y1="1695.118164" x2="960" y2="175.118118" gradientTransform="matrix(0.0248071,0,0,0.0248071,0,0.00000000000000282)">
<stop offset="0" style="stop-color:rgb(87.843138%,87.843138%,87.843138%);stop-opacity:1;"/>
<stop offset="1" style="stop-color:rgb(93.333334%,93.333334%,93.333334%);stop-opacity:1;"/>
</linearGradient>
<linearGradient id="linear2" gradientUnits="userSpaceOnUse" x1="422.598206" y1="397.716309" x2="1497.400513" y2="1472.518677" gradientTransform="matrix(0.0175412,-0.0175412,-0.0175412,-0.0175412,23.378315,56.440223)">
<stop offset="0" style="stop-color:rgb(93.725491%,32.549021%,31.37255%);stop-opacity:1;"/>
<stop offset="1" style="stop-color:rgb(89.803922%,45.09804%,45.09804%);stop-opacity:1;"/>
</linearGradient>
</defs>
<g id="surface1">
<path style=" stroke:none;fill-rule:nonzero;fill:url(#radial0);" d="M 27.289062 42.050781 L 31.257812 42.050781 L 31.257812 40.066406 L 27.289062 40.066406 Z M 27.289062 42.050781 "/>
<path style=" stroke:none;fill-rule:nonzero;fill:url(#radial1);" d="M 20.339844 42.050781 L 16.371094 42.050781 L 16.371094 44.035156 L 20.339844 44.035156 Z M 20.339844 42.050781 "/>
<path style=" stroke:none;fill-rule:nonzero;fill:url(#radial2);" d="M 20.339844 42.050781 L 16.371094 42.050781 L 16.371094 40.066406 L 20.339844 40.066406 Z M 20.339844 42.050781 "/>
<path style=" stroke:none;fill-rule:nonzero;fill:url(#radial3);" d="M 27.289062 42.050781 L 31.257812 42.050781 L 31.257812 44.035156 L 27.289062 44.035156 Z M 27.289062 42.050781 "/>
<path style=" stroke:none;fill-rule:nonzero;fill:url(#linear0);" d="M 20.339844 41.554688 L 27.289062 41.554688 L 27.289062 44.035156 L 20.339844 44.035156 Z M 20.339844 41.554688 "/>
<path style=" stroke:none;fill-rule:nonzero;fill:url(#linear1);" d="M 23.816406 4.34375 C 13.371094 4.34375 4.960938 12.753906 4.960938 23.199219 C 4.960938 33.640625 13.371094 42.050781 23.816406 42.050781 C 34.257812 42.050781 42.667969 33.640625 42.667969 23.199219 C 42.667969 12.753906 34.257812 4.34375 23.816406 4.34375 Z M 23.816406 15.257812 C 28.210938 15.257812 31.753906 18.800781 31.753906 23.199219 C 31.753906 27.59375 28.210938 31.136719 23.816406 31.136719 C 19.417969 31.136719 15.875 27.59375 15.875 23.199219 C 15.875 18.800781 19.417969 15.257812 23.816406 15.257812 Z M 23.816406 15.257812 "/>
<path style=" stroke:none;fill-rule:nonzero;fill:rgb(97.254902%,97.254902%,97.254902%);fill-opacity:1;" d="M 23.816406 4.34375 C 13.371094 4.34375 4.960938 12.753906 4.960938 23.199219 C 4.960938 23.320312 4.964844 23.445312 4.964844 23.570312 C 5.164062 13.296875 13.496094 5.089844 23.816406 5.089844 C 34.136719 5.089844 42.46875 13.296875 42.664062 23.570312 C 42.667969 23.445312 42.667969 23.320312 42.667969 23.199219 C 42.667969 12.753906 34.257812 4.34375 23.816406 4.34375 Z M 15.886719 23.570312 C 15.878906 23.691406 15.875 23.816406 15.875 23.941406 C 15.875 28.339844 19.417969 31.878906 23.816406 31.878906 C 28.210938 31.878906 31.753906 28.339844 31.753906 23.941406 C 31.753906 23.816406 31.75 23.691406 31.746094 23.570312 C 31.550781 27.792969 28.085938 31.136719 23.816406 31.136719 C 19.542969 31.136719 16.078125 27.792969 15.886719 23.570312 Z M 15.886719 23.570312 "/>
<path style=" stroke:none;fill-rule:nonzero;fill:url(#linear2);" d="M 10.484375 9.867188 C 9.148438 11.203125 8.054688 12.683594 7.203125 14.261719 L 16.449219 20.039062 L 16.589844 19.898438 C 16.972656 19.0625 17.511719 18.277344 18.203125 17.585938 C 18.894531 16.894531 19.679688 16.355469 20.515625 15.972656 L 20.65625 15.832031 L 14.878906 6.585938 C 13.300781 7.4375 11.820312 8.53125 10.484375 9.867188 Z M 7.203125 32.132812 C 8.054688 33.710938 9.148438 35.191406 10.484375 36.527344 C 11.820312 37.863281 13.300781 38.957031 14.878906 39.8125 L 20.65625 30.566406 L 20.515625 30.421875 C 19.679688 30.039062 18.894531 29.503906 18.203125 28.8125 C 17.511719 28.121094 16.972656 27.332031 16.589844 26.496094 L 16.449219 26.355469 Z M 32.75 6.585938 L 26.972656 15.832031 L 27.113281 15.972656 C 27.949219 16.355469 28.738281 16.894531 29.429688 17.585938 C 30.121094 18.277344 30.65625 19.0625 31.039062 19.898438 L 31.183594 20.039062 L 40.429688 14.261719 C 39.574219 12.683594 38.480469 11.203125 37.144531 9.867188 C 35.8125 8.53125 34.328125 7.4375 32.75 6.585938 Z M 26.972656 30.566406 L 32.75 39.8125 C 34.328125 38.957031 35.8125 37.863281 37.144531 36.527344 C 38.480469 35.191406 39.574219 33.710938 40.429688 32.132812 L 31.183594 26.355469 L 31.039062 26.496094 C 30.65625 27.332031 30.121094 28.121094 29.429688 28.8125 C 28.738281 29.503906 27.949219 30.039062 27.113281 30.421875 Z M 26.972656 30.566406 "/>
<path style=" stroke:none;fill-rule:nonzero;fill:rgb(12.941177%,12.941177%,12.941177%);fill-opacity:1;" d="M 23.816406 4.203125 C 13.292969 4.203125 4.820312 12.675781 4.820312 23.199219 C 4.820312 33.71875 13.292969 42.191406 23.816406 42.191406 C 34.335938 42.191406 42.808594 33.71875 42.808594 23.199219 C 42.808594 12.675781 34.335938 4.203125 23.816406 4.203125 Z M 23.816406 4.484375 C 34.183594 4.484375 42.527344 12.828125 42.527344 23.199219 C 42.527344 33.566406 34.183594 41.910156 23.816406 41.910156 C 13.445312 41.910156 5.101562 33.566406 5.101562 23.199219 C 5.101562 12.828125 13.445312 4.484375 23.816406 4.484375 Z M 23.816406 4.484375 "/>
<path style=" stroke:none;fill-rule:nonzero;fill:rgb(0%,0%,0%);fill-opacity:0.235294;" d="M 4.964844 22.808594 C 4.964844 22.9375 4.960938 23.066406 4.960938 23.199219 C 4.960938 33.640625 13.371094 42.050781 23.816406 42.050781 C 34.257812 42.050781 42.667969 33.640625 42.667969 23.199219 C 42.667969 23.066406 42.667969 22.9375 42.664062 22.808594 C 42.457031 33.070312 34.128906 41.269531 23.816406 41.269531 C 13.5 41.269531 5.171875 33.070312 4.964844 22.808594 Z M 4.964844 22.808594 "/>
<path style=" stroke:none;fill-rule:nonzero;fill:rgb(20%,20%,20%);fill-opacity:1;" d="M 23.816406 4.203125 C 13.292969 4.203125 4.820312 12.675781 4.820312 23.199219 C 4.820312 33.71875 13.292969 42.191406 23.816406 42.191406 C 34.335938 42.191406 42.808594 33.71875 42.808594 23.199219 C 42.808594 12.675781 34.335938 4.203125 23.816406 4.203125 Z M 23.816406 4.484375 C 34.183594 4.484375 42.527344 12.828125 42.527344 23.199219 C 42.527344 33.566406 34.183594 41.910156 23.816406 41.910156 C 13.445312 41.910156 5.101562 33.566406 5.101562 23.199219 C 5.101562 12.828125 13.445312 4.484375 23.816406 4.484375 Z M 23.816406 15.117188 C 19.339844 15.117188 15.734375 18.722656 15.734375 23.199219 C 15.734375 27.671875 19.339844 31.277344 23.816406 31.277344 C 28.289062 31.277344 31.894531 27.671875 31.894531 23.199219 C 31.894531 18.722656 28.289062 15.117188 23.816406 15.117188 Z M 23.816406 15.398438 C 28.136719 15.398438 31.613281 18.875 31.613281 23.199219 C 31.613281 27.519531 28.136719 30.996094 23.816406 30.996094 C 19.492188 30.996094 16.015625 27.519531 16.015625 23.199219 C 16.015625 18.875 19.492188 15.398438 23.816406 15.398438 Z M 23.816406 15.398438 "/>
<path style=" stroke:none;fill-rule:nonzero;fill:rgb(100%,100%,100%);fill-opacity:0.392157;" d="M 14.878906 6.585938 C 13.300781 7.4375 11.820312 8.53125 10.484375 9.867188 C 9.148438 11.203125 8.054688 12.683594 7.203125 14.261719 L 7.496094 14.445312 C 8.300781 13.066406 9.296875 11.765625 10.484375 10.578125 C 11.820312 9.242188 13.300781 8.148438 14.878906 7.296875 L 20.351562 16.050781 C 20.40625 16.023438 20.460938 15.996094 20.515625 15.972656 L 20.65625 15.832031 Z M 32.75 6.585938 L 26.972656 15.832031 L 27.113281 15.972656 C 27.167969 15.996094 27.222656 16.023438 27.28125 16.050781 L 32.75 7.296875 C 34.328125 8.148438 35.8125 9.242188 37.144531 10.578125 C 38.332031 11.765625 39.328125 13.066406 40.132812 14.445312 L 40.429688 14.261719 C 39.574219 12.683594 38.480469 11.203125 37.144531 9.867188 C 35.8125 8.53125 34.328125 7.4375 32.75 6.585938 Z M 16.449219 26.355469 L 7.203125 32.132812 C 7.296875 32.308594 7.394531 32.484375 7.496094 32.660156 L 16.449219 27.066406 L 16.589844 27.207031 C 16.972656 28.046875 17.511719 28.832031 18.203125 29.523438 C 18.847656 30.167969 19.574219 30.679688 20.351562 31.058594 L 20.65625 30.566406 L 20.515625 30.421875 C 19.679688 30.039062 18.894531 29.503906 18.203125 28.8125 C 17.511719 28.117188 16.972656 27.332031 16.589844 26.496094 Z M 31.183594 26.355469 L 31.039062 26.496094 C 30.65625 27.332031 30.121094 28.117188 29.429688 28.8125 C 28.738281 29.503906 27.949219 30.039062 27.113281 30.421875 L 26.972656 30.566406 L 27.28125 31.058594 C 28.054688 30.679688 28.78125 30.167969 29.429688 29.523438 C 30.121094 28.832031 30.65625 28.046875 31.039062 27.207031 L 31.183594 27.066406 L 40.132812 32.660156 C 40.234375 32.484375 40.332031 32.308594 40.429688 32.132812 Z M 31.183594 26.355469 "/>
<path style="fill:none;stroke-width:3;stroke-linecap:square;stroke-linejoin:bevel;stroke:rgb(12.941177%,12.941177%,12.941177%);stroke-opacity:1;stroke-miterlimit:4;" d="M 111.822655 -109.76005 C 97.574015 -95.511411 85.908463 -79.721252 76.825997 -62.889526 L 175.441579 -1.27041 L 176.941436 -2.770267 C 181.02438 -11.686082 186.773831 -20.060282 194.148126 -27.434578 C 201.522422 -34.808874 209.896623 -40.558325 218.812438 -44.641268 L 220.312295 -46.141125 L 158.693179 -144.756708 C 141.861453 -135.674242 126.071294 -124.008689 111.822655 -109.76005 Z M 76.825997 127.717272 C 85.908463 144.548998 97.574015 160.339157 111.822655 174.587796 C 126.071294 188.836436 141.861453 200.501988 158.693179 209.626117 L 220.312295 111.010534 L 218.812438 109.469015 C 209.896623 105.386071 201.522422 99.678283 194.148126 92.303987 C 186.773831 84.929691 181.02438 76.513828 176.941436 67.598013 L 175.441579 66.098156 Z M 349.299977 -144.756708 L 287.680861 -46.141125 L 289.180718 -44.641268 C 298.096533 -40.558325 306.512396 -34.808874 313.886692 -27.434578 C 321.260988 -20.060282 326.968776 -11.686082 331.051719 -2.770267 L 332.593239 -1.27041 L 431.208822 -62.889526 C 422.084693 -79.721252 410.41914 -95.511411 396.170501 -109.76005 C 381.963524 -124.008689 366.131703 -135.674242 349.299977 -144.756708 Z M 287.680861 111.010534 L 349.299977 209.626117 C 366.131703 200.501988 381.963524 188.836436 396.170501 174.587796 C 410.41914 160.339157 422.084693 144.548998 431.208822 127.717272 L 332.593239 66.098156 L 331.051719 67.598013 C 326.968776 76.513828 321.260988 84.929691 313.886692 92.303987 C 306.512396 99.678283 298.096533 105.386071 289.180718 109.469015 Z M 287.680861 111.010534 " transform="matrix(0.093759,0,0,0.093759,0,20.158175)"/>
</g>
</svg>
